X:1
T:Title
%%score { ( 1 3 ) | ( 2 4 ) }
L:1/8
M:3/4
K:F
V:1 treble nm="Grand Piano"
V:3 treble 
V:2 bass 
V:4 bass 
V:1
 z2 z2[Q:1/4=92] F>G | A3 A GF | D F3 z A | c3 d c>A | [EG]4 F>G | A3 A GF | D F3 z A | %7
 c3 A [EG]>[EA] | F4 c>c | [Fd]3 [Fd] [DFB][Fd] | c4 A>A | [EB]3 [EB] [EG][Ec] | A4 F>G | A3 A Bc | %14
 d4 [DFB][DG] | [A,CF]3 [CFA] [CEA]>[B,EG] |[M:2/4] [A,F]4 |] %17
V:2
 z2 z2 [F,A,]>[F,B,F] | [F,CF]3 [F,CF] [F,B,C][F,A,C] | [F,B,] [F,A,C]3 A,C | %3
 [F,A,F]3 [F,B,F] [F,A,F]>[F,CF] | [C,C]4 [F,A,]>[F,B,F] | [F,CF]3 [F,CF] [F,B,C][F,A,C] | %6
 [F,B,] [F,A,C]3 A,C | [F,A,F]3 [F,CF] [C,B,]>[C,C] | [F,A,]4 [F,A,F]>[F,A,F] | %9
 [B,,B,]3 [B,,B,] B,,[B,,B,] | [F,A,F]4 [F,CF]>[F,CF] | [C,C]3 [C,C] [C,C][C,C] | %12
 [F,CF]4 [F,A,]>[K:treble][F,B,F] | [F,CF]3 [F,CF] [G,CE][A,CF] | [B,F]4[K:bass] z B, | %15
 C,3 C, C,>C, |[M:2/4] F,4 |] %17
V:3
 x6 | x6 | z2 z2 F2 | x6 | x6 | x6 | z2 z2 F2 | x6 | x6 | x6 | x6 | x6 | x6 | x6 | x6 | x6 | %16
[M:2/4] x4 |] %17
V:4
 x6 | x6 | z2 z2 F,2 | x6 | x6 | x6 | z2 z2 F,2 | x6 | x6 | x6 | x6 | x6 | x11/2[K:treble] x/ | %13
 x6 | z2 z2[K:bass] B,,2 | x6 |[M:2/4] x4 |] %17

